X:1
T:G minor Thomas Ravenscroft, 1621
T:Thomas Sternhold, 1547 86. 86. (C. M.)
T:Litchfield (Psalm 9) No copyright. Transcribed from Ravenscroft, The Whole Booke of Psalmes, 1621.
%%score [ 1 2 3 4 ]
L:1/8
M:12/4
K:Bb
V:1 treble nm="Cantus" snm="Tr."
V:2 treble nm="Medius" snm="M."
V:3 treble-8 nm="Tenor" snm="T."
V:4 bass nm="Bassus" snm="B."
V:1
"^1. With heart and mouth unto the Lord      Will I sing laud and praise:     And speak of all His wondrous works,      And them declare always." D4 G2 G2 d3 F G2 AG ^F4 | %1
 z2 F2 B2 A2 G3 G ^F4 | B4 c2 G2 d2 c2 c2 A2 d4 | z2 B2 B2 A G2 (^F/E/ F2) G16 |] %4
V:2
"^2. I will be glad and much rejoice                In Thee, O Lord most high:      And make my songs extol Thy name         Above      the   starry        sky." B4 d2 e2 f3 f d2 e2 d4 | %1
 z2 d2 d2 d2 d2 G2 A4 | f4 c2 e2 f2 f2 e2 d2 f4 | z2 f2 e2 e2 d3 c B16 |] %4
V:3
"^3. For that my foes are driven back,                     And turned unto flight:         They fall down flat and are destroyed    By Thy great force and might." G4 B2 c2 d2 A2 B2 c2 A4 | %1
 z2 A2 G2 A2 B2 c2 d4 | d4 A2 c2 B2 A2 G2 F2 B4 | d4 G2 c2 B2 A2 G16 |] %4
V:4
 G,4 G,2 E,2 D,3 D, G,2 C,2 D,4 | D,4 G,2 F,2 E,3 E, D,4 | B,,4 F,2 E,2 D,2 F,2 C,2 D,2 B,,4 | %3
 B,,4 E,2 C,2 D,2 D,2 G,,16 |] %4

